X:391
T:Cicerenella
N:Neapolitan Tarantella
Z:Jack Campin, http://www.campin.me.uk/
F:Jack Campin's Nine-Note Tunebook
% last edit 03-02-2013
Z:John Chambers <jc@trillian.mit.edu>
N:If the D part is used, the order is ADBC or ADABAC.
M:6/8
L:1/8
Q:3/8=142
P:ADABAC
K:DMin
P:A
|:d2d|A2A d2d|A2A A2A | B2B   BcB|B2A
  ABA|A2G GAG|G2F FGF | F2E   F2E|D2z:|
P:B
|:D2E|FEF GFE|FEF GFE | FED  ^CDE|D2z
  D2E|FEF GFG|AGA BAG | FED  ^CDE|D2z:|
P:C
|:CDE|FEF AFA|c2c cdc | c2B   BcB|B2A
  CDE|FEF AFA|c2c c=Bc|[ce]dc BAG|F2z:|
P:D
|:A2B|c2c d2c|B2A G2A | B2B   c2B|A2G
  F2A|c2c d2c|B2A G2A | BcB   A2G|F2z:|

